X:1
T:Title
%%score { ( 1 3 ) | 2 }
L:1/8
M:6/8
K:Ab
V:1 treble nm="Grand Piano"
V:3 treble 
V:2 bass 
V:1
 z3 z2[Q:1/4=87] [CE] | [Ec][Ec][Ec] [Ec][EB][EA] | BAF [DF] [CE]2 | A>AA [=DA][DG][DA] | B6 | %5
 [Ec][Ec][Ec] [Ec][EB][EA] | BAF [DF] [CE]2 | A>AA GAB | [CA]6 | d>dd dcB | c2 [Ge] e3 | d>dd cBA | %12
 B6 | [Ec][Ec][Ec] [Ec][EB][EA] | BBB BAF | E>EA GAB |[M:5/8] [CA]-[CA]- [CA]3 |] %17
V:2
 z3 z2 [A,,A,] | [A,,A,][A,,A,][A,,A,] [A,,A,][B,,G,][C,A,] | %2
 [D,F,D][D,F,D][D,A,D] [A,,A,] [A,,A,]2 | [F,A,C]>[F,A,C][F,A,C] [B,,B,][B,,B,][B,,B,] | %4
 [E,G,E]2 [E,G,] [E,G,]2 [E,G,] | [A,,A,][A,,A,][A,,A,] [A,,A,][B,,G,][C,A,] | %6
 [D,F,D][D,F,D][D,A,D] [A,,A,] [A,,A,]2 | [E,CE]>[E,CE][E,CE] [E,B,D][E,A,C][E,G,D] | [A,,A,]6 | %9
 [E,B,E]>[E,B,E][E,B,E] [E,B,E][E,A,E][E,G,E] | [A,E]2 [E,D][K:treble] [A,CA]3 | %11
 [G,B,E]>[G,B,E][G,B,E] [A,E][K:bass][G,B,E][F,B,=D] | [E,G,E]2 [B,,A,] [E,G,]2 [E,G,] | %13
 [A,,A,][A,,A,][A,,A,] [A,,A,][B,,G,][C,A,] | [D,F,D][D,F,D][D,F,D] [D,F,D][D,F,D][D,A,D] | %15
 [E,A,C]>[E,A,C][E,CE] [E,B,D][E,A,C][E,G,D] |[M:5/8] [A,,A,]-[A,,A,]- [A,,A,]3 |] %17
V:3
 x6 | x6 | x6 | x6 | z2 E E2 E | x6 | x6 | x6 | x6 | x6 | x6 | x6 | z2 =D E2 E | x6 | x6 | x6 | %16
[M:5/8] x5 |] %17

